svg/u1f696.svg

<svg viewBox="0 0 128 128" xmlns="http://www.w3.org/2000/svg">
  <path d="M54.59,19.94v-4.35c0,0,6.18-11.5,6.56-11.79c0.2-0.15,7.82-0.1,7.95-0.02 c0.29,0.16,6.52,11.49,6.52,11.76c0,0.27-0.08,4.2-0.08,4.2L54.59,19.94z" fill="#B0B0B0"/>
  <path d="M21.09,57.68l-3.17-0.05c0,0-0.16-3.8-0.37-4.44c-0.21-0.63-0.58-1.16-2.11-1.37s-6.23,0-7.87,0 c-0.95,0-3.49,1.69-3.64,4.49c-0.21,3.75,1.9,5.65,4.12,5.7c2.22,0.05,9.35,0.21,9.35,0.21s3.75-0.79,3.75-1 C21.14,61.01,21.09,57.68,21.09,57.68z" fill="#444E47"/>
  <path d="M107.06,58h3.27c0,0,0.05-2,0.05-2.96c0-1.32,1.16-2.96,3.06-3.06c1.9-0.11,5.44,0.11,6.71,0.21 c1.27,0.11,4.12,1.21,4.22,4.86c0.08,2.8-1.27,5.23-4.07,5.44c-2.8,0.21-10.46,0.26-10.46,0.26l-3.27-1.69L107.06,58z" fill="#444E47"/>
  <path d="M19.06,101.07l-4.65,2.19c0,0-0.49,14.72-0.45,16.51c0.03,1.12,0.54,4.03,7.25,4.12 c6.89,0.09,7.25-2.68,7.25-3.4s0-10.65,0-10.65L19.06,101.07z" fill="#4E433D"/>
  <path d="M97.68,111.22c-0.13,1.57,0.01,8,0.04,9.35c0.04,1.7,0.75,3.91,7.16,3.76 c7.56-0.18,7.65-2.24,7.65-3.94c0-1.7,0-16.6,0-16.6L97.68,111.22z" fill="#4E433D"/>
  <path d="M14.49,101.15c0,0-2.14-5.88-1.71-18.82c0.43-12.94,2.25-17.64,2.46-18.39s2.78-2.57,3.1-3.1 c0.32-0.53,11.44-25.56,12.3-27.05c0.86-1.5,1.92-2.35,3.53-2.89c1.6-0.53,11.44-3.42,31.01-3.21s28.7,2.52,29.9,3.14 c1.78,0.92,2.65,1.74,3.83,3.45c1.18,1.71,9.9,25.66,10.54,26.31c0.64,0.64,3.85,3.03,4.06,4.21c0.15,0.8,1.6,9.62,1.5,17.64 c-0.11,8.02-0.96,15.29-0.96,15.29l-51.11,4.38L14.49,101.15z" fill="#FFD61C"/>
  <path d="M13.16,94.62c0,0-0.38,7.55,1.4,11.13c1.79,3.57,4.25,6.7,16.85,6.9s22.92,0.3,29.36,0.3 s39.98-0.41,42.46-0.6c5.36-0.4,9.13-4.56,10.32-9.72c1.19-5.16,0.5-7.54,0.5-7.54s-7.64,2.18-16.27,2.48 c-8.63,0.3-22.12,0.6-35.51,0.5c-13.39-0.1-30.03,0.04-34.52-0.3C18.62,97.07,13.16,94.62,13.16,94.62z" fill="#FFA828"/>
  <path d="M30.83,105.1c-0.02,2.25,2.22,3.4,6.13,3.58s15.39,0.21,25.22,0.29s29.43-0.05,31.61-0.48 c2.18-0.43,3.55-2.45,3.41-3.5c-0.14-1.05-1.12-0.84-5.92-0.88c-2.32-0.02-15.67,0.15-28.68,0.13c-13.98-0.02-27.63-0.23-28.53-0.24 C32.35,103.99,30.84,103.98,30.83,105.1z" fill="#444E47"/>
  <path d="M44.04,90.07c1.44,0.76,9.01,0.45,19.82,0.53s17.87,0.23,19.44-0.3c1.58-0.53,4.2-6.38,4.05-9.76 c-0.15-3.38-10.59-4.88-23.27-4.8s-23.95,0.38-23.8,4.8C40.43,84.89,42.76,89.4,44.04,90.07z" fill="#444E47"/>
  <path d="M114.03,79.48c-0.52-0.23-19.23,0.08-20.79,0.15s-2.53,1.65-2.82,2.93c-0.3,1.28-1.19,4.2-1.41,5.03 s0.19,1.71,2.34,1.79c3.15,0.12,7.22,0.3,12.1,0.33c5.2,0.04,10.44-0.25,10.44-0.25s0.34-3.33,0.34-5.13S114.03,79.48,114.03,79.48z " fill="#FFEACA"/>
  <path d="M14.16,79.88c0,0-0.88,2.33-0.8,5.25c0.07,2.39,0.27,4.19,0.8,4.25c0.53,0.07,4.39,0.53,11.43,0.66 s13.95-0.13,14.09-0.47s-0.8-3.52-1.86-5.65c-1.06-2.13-1.86-4.12-4.92-4.25C29.84,79.55,14.36,79.62,14.16,79.88z" fill="#FFEACA"/>
  <path d="M25.32,79.46c-3.91,0.13-5.47,2.41-5.4,5.86s2.15,4.88,5.73,4.88c3.52,0,5.47-1.76,5.34-5.34 C30.88,81.87,29.23,79.33,25.32,79.46z" fill="#FFFFFF"/>
  <path d="M102.74,79.28c-3.12,0-5.57,1.69-5.57,5.38s2.92,5.06,5.51,5.06c2.59,0,5.64-1.15,5.7-5.06 C108.44,80.95,105.85,79.28,102.74,79.28z" fill="#FFFFFF"/>
  <path d="M36.55,36.29c-1.93,0.15-4.46,0.91-5.94,3.96c-1.74,3.58-7.68,18.9-8.28,21.03 c-0.6,2.13,0,3.39,2.46,3.19s19.43-1.3,38.86-1.3s36.83,0.31,39.08,0.41c2.25,0.1,2.97-1.74,2.46-3.58 c-0.5-1.82-6.3-17.52-7.42-20.08s-3.89-3.48-6.14-3.58c-2.25-0.1-15.72-1.24-26.97-1.24S38.81,36.12,36.55,36.29z" fill="#444E47"/>
  <path d="M28.12,55.54c0,0,4.12-11.1,4.55-12.07c0.42-0.97,1.03-3.09,3.94-3.4s10.16-1.37,27.48-1.46 c17.32-0.09,24.93,1.01,26.39,1.1c1.47,0.09,3.93,1.05,5.21,4.08c1.28,3.02,4.04,10.58,4.04,10.58s-18.14,1.83-20.07,1.83 c-1.92,0-45.64,0.92-45.64,0.92L28.12,55.54z" fill="#AFE3FB"/>
  <path d="M28.12,55.54c0,0,2.33-1.04,5.59-1.75c3.09-0.68,6.1-1.13,6.1-1.13s0.13-4.63,0.2-6.03 c0.07-1.41,1.54-2.61,3.29-2.68c1.48-0.06,5.77,0,7.04,0.07s2.15,1.41,2.08,3.29c-0.07,1.88-0.13,4.89-0.13,4.89 s7.44-0.27,12.4-0.32c5.88-0.06,13.15,0.12,13.15,0.12s0.07-3.96,0.13-5.56c0.07-1.61,0.87-2.35,2.15-2.41 c1.27-0.07,6.5,0,7.91,0.07c1.41,0.07,2.08,0.94,2.15,2.68c0.07,1.74,0.13,5.5,0.13,5.5s2.61,0.47,5.1,1.07 c2.3,0.56,4.34,1.06,4.34,1.06s0.62,1.69,0.82,2.43c0.2,0.74-0.34,1.34-2.28,1.34c-1.94,0-23.47-0.27-33.72-0.2 s-33.66,0.74-35.07,0.8s-2.08-1.01-1.94-1.74S28.12,55.54,28.12,55.54z" fill="#96C8EB"/>
  <path d="M56.97,15.4c-0.15,0.09-6.07,6.7-6.07,6.7s-0.05,7.62,0.05,7.77s27.33,0.15,27.53,0.1 s0.1-8.79,0.1-8.79s-5.49-5.83-5.63-5.92C72.79,15.16,57.21,15.26,56.97,15.4z" fill="#E1E1E1"/>
  <rect height="4.37" fill="#4A4542" width="4.24" x="54.56" y="19.62"/>
  <rect height="4.37" fill="#4A4542" width="4.24" x="58.78" y="23.94"/>
  <rect height="4.37" fill="#4A4542" width="4.24" x="62.86" y="19.58"/>
  <rect height="4.37" fill="#4A4542" width="4.24" x="67.08" y="23.94"/>
  <rect height="4.37" fill="#4A4542" width="4.24" x="71.26" y="19.72"/>
</svg>

<svg viewBox="0 0 128 128" xmlns="http://www.w3.org/2000/svg">
  <defs/>
  <path d="M54.59,19.94 L54.59,15.59 C54.59,15.59 60.77,4.09 61.15,3.8 C61.35,3.65 68.97,3.7 69.1,3.78 C69.39,3.94 75.62,15.27 75.62,15.54 C75.62,15.81 75.54,19.74 75.54,19.74 L54.59,19.94 Z" fill="#B0B0B0"/>
  <path d="M21.09,57.68 L17.92,57.63 C17.92,57.63 17.76,53.83 17.55,53.19 C17.34,52.56 16.97,52.03 15.44,51.82 C13.91,51.61 9.21,51.82 7.57,51.82 C6.62,51.82 4.08,53.51 3.93,56.31 C3.72,60.06 5.83,61.96 8.05,62.01 C10.27,62.06 17.4,62.22 17.4,62.22 C17.4,62.22 21.15,61.43 21.15,61.22 C21.14,61.01 21.09,57.68 21.09,57.68 Z" fill="#444E47"/>
  <path d="M107.06,58 L110.33,58 C110.33,58 110.38,56 110.38,55.04 C110.38,53.72 111.54,52.08 113.44,51.98 C115.34,51.87 118.88,52.09 120.15,52.19 C121.42,52.3 124.27,53.4 124.37,57.05 C124.45,59.85 123.1,62.28 120.3,62.49 C117.5,62.7 109.84,62.75 109.84,62.75 L106.57,61.06 L107.06,58 Z" fill="#444E47"/>
  <path d="M19.06,101.07 L14.41,103.26 C14.41,103.26 13.92,117.98 13.96,119.77 C13.99,120.89 14.5,123.8 21.21,123.89 C28.1,123.98 28.46,121.21 28.46,120.49 C28.46,119.77 28.46,109.84 28.46,109.84 L19.06,101.07 Z" fill="#4E433D"/>
  <path d="M97.68,111.22 C97.55,112.79 97.69,119.22 97.72,120.57 C97.76,122.27 98.47,124.48 104.88,124.33 C112.44,124.15 112.53,122.09 112.53,120.39 C112.53,118.69 112.53,103.79 112.53,103.79 L97.68,111.22 Z" fill="#4E433D"/>
  <path d="M14.49,101.15 C14.49,101.15 12.35,95.27 12.78,82.33 C13.21,69.39 15.03,64.69 15.24,63.94 C15.45,63.19 18.02,61.37 18.34,60.84 C18.66,60.31 29.78,35.28 30.64,33.79 C31.5,32.29 32.56,31.44 34.17,30.9 C35.77,30.37 45.61,27.48 65.18,27.69 C84.75,27.9 93.88,30.21 95.08,30.83 C96.86,31.75 97.73,32.57 98.91,34.28 C100.09,35.99 108.81,59.94 109.45,60.59 C110.09,61.23 113.3,63.62 113.51,64.8 C113.66,65.6 115.11,74.42 115.01,82.44 C114.9,90.46 114.05,97.73 114.05,97.73 L62.94,102.11 L14.49,101.15 Z" fill="#FFD61C"/>
  <path d="M13.16,94.62 C13.16,94.62 12.78,102.17 14.56,105.75 C16.35,109.32 18.81,112.45 31.41,112.65 C44.01,112.85 54.33,112.95 60.77,112.95 C67.21,112.95 100.75,112.54 103.23,112.35 C108.59,111.95 112.36,107.79 113.55,102.63 C114.74,97.47 114.05,95.09 114.05,95.09 C114.05,95.09 106.41,97.27 97.78,97.57 C89.15,97.87 75.66,98.17 62.27,98.07 C48.88,97.97 32.24,98.11 27.75,97.77 C18.62,97.07 13.16,94.62 13.16,94.62 Z" fill="#FFA828"/>
  <path d="M30.83,105.1 C30.81,107.35 33.05,108.5 36.96,108.68 C40.87,108.86 52.35,108.89 62.18,108.97 C72.01,109.05 91.61,108.92 93.79,108.49 C95.97,108.06 97.34,106.04 97.2,104.99 C97.06,103.94 96.08,104.15 91.28,104.11 C88.96,104.09 75.61,104.26 62.6,104.24 C48.62,104.22 34.97,104.01 34.07,104 C32.35,103.99 30.84,103.98 30.83,105.1 Z" fill="#444E47"/>
  <path d="M44.04,90.07 C45.48,90.83 53.05,90.52 63.86,90.6 C74.67,90.68 81.73,90.83 83.3,90.3 C84.88,89.77 87.5,83.92 87.35,80.54 C87.2,77.16 76.76,75.66 64.08,75.74 C51.4,75.82 40.13,76.12 40.28,80.54 C40.43,84.89 42.76,89.4 44.04,90.07 Z" fill="#444E47"/>
  <path d="M114.03,79.48 C113.51,79.25 94.8,79.56 93.24,79.63 C91.68,79.7 90.71,81.28 90.42,82.56 C90.12,83.84 89.23,86.76 89.01,87.59 C88.79,88.42 89.2,89.3 91.35,89.38 C94.5,89.5 98.57,89.68 103.45,89.71 C108.65,89.75 113.89,89.46 113.89,89.46 C113.89,89.46 114.23,86.13 114.23,84.33 C114.23,82.53 114.03,79.48 114.03,79.48 Z" fill="#FFEACA"/>
  <path d="M14.16,79.88 C14.16,79.88 13.28,82.21 13.36,85.13 C13.43,87.52 13.63,89.32 14.16,89.38 C14.69,89.45 18.55,89.91 25.59,90.04 C32.63,90.17 39.54,89.91 39.68,89.57 C39.82,89.23 38.88,86.05 37.82,83.92 C36.76,81.79 35.96,79.8 32.9,79.67 C29.84,79.55 14.36,79.62 14.16,79.88 Z" fill="#FFEACA"/>
  <path d="M25.32,79.46 C21.41,79.59 19.85,81.87 19.92,85.32 C19.99,88.77 22.07,90.2 25.65,90.2 C29.17,90.2 31.12,88.44 30.99,84.86 C30.88,81.87 29.23,79.33 25.32,79.46 Z" fill="#FFFFFF"/>
  <path d="M102.74,79.28 C99.62,79.28 97.17,80.97 97.17,84.66 C97.17,88.35 100.09,89.72 102.68,89.72 C105.27,89.72 108.32,88.57 108.38,84.66 C108.44,80.95 105.85,79.28 102.74,79.28 Z" fill="#FFFFFF"/>
  <path d="M36.55,36.29 C34.62,36.44 32.09,37.2 30.61,40.25 C28.87,43.83 22.93,59.15 22.33,61.28 C21.73,63.41 22.33,64.67 24.79,64.47 C27.25,64.27 44.22,63.17 63.65,63.17 C83.08,63.17 100.48,63.48 102.73,63.58 C104.98,63.68 105.7,61.84 105.19,60 C104.69,58.18 98.89,42.48 97.77,39.92 C96.65,37.36 93.88,36.44 91.63,36.34 C89.38,36.24 75.91,35.1 64.66,35.1 C53.41,35.1 38.81,36.12 36.55,36.29 Z" fill="#444E47"/>
  <path d="M28.12,55.54 C28.12,55.54 32.24,44.44 32.67,43.47 C33.09,42.5 33.7,40.38 36.61,40.07 C39.52,39.76 46.77,38.7 64.09,38.61 C81.41,38.52 89.02,39.62 90.48,39.71 C91.95,39.8 94.41,40.76 95.69,43.79 C96.97,46.81 99.73,54.37 99.73,54.37 C99.73,54.37 81.59,56.2 79.66,56.2 C77.74,56.2 34.02,57.12 34.02,57.12 L28.12,55.54 Z" fill="#AFE3FB"/>
  <path d="M28.12,55.54 C28.12,55.54 30.45,54.5 33.71,53.79 C36.8,53.11 39.81,52.66 39.81,52.66 C39.81,52.66 39.94,48.03 40.01,46.63 C40.08,45.22 41.55,44.02 43.3,43.95 C44.78,43.89 49.07,43.95 50.34,44.02 C51.61,44.09 52.49,45.43 52.42,47.31 C52.35,49.19 52.29,52.2 52.29,52.2 C52.29,52.2 59.73,51.93 64.69,51.88 C70.57,51.82 77.84,52 77.84,52 C77.84,52 77.91,48.04 77.97,46.44 C78.04,44.83 78.84,44.09 80.12,44.03 C81.39,43.96 86.62,44.03 88.03,44.1 C89.44,44.17 90.11,45.04 90.18,46.78 C90.25,48.52 90.31,52.28 90.31,52.28 C90.31,52.28 92.92,52.75 95.41,53.35 C97.71,53.91 99.75,54.41 99.75,54.41 C99.75,54.41 100.37,56.1 100.57,56.84 C100.77,57.58 100.23,58.18 98.29,58.18 C96.35,58.18 74.82,57.91 64.57,57.98 C54.32,58.05 30.91,58.72 29.5,58.78 C28.09,58.84 27.42,57.77 27.56,57.04 C27.7,56.31 28.12,55.54 28.12,55.54 Z" fill="#96C8EB"/>
  <path d="M56.97,15.4 C56.82,15.49 50.9,22.1 50.9,22.1 C50.9,22.1 50.85,29.72 50.95,29.87 C51.05,30.02 78.28,30.02 78.48,29.97 C78.68,29.92 78.58,21.18 78.58,21.18 C78.58,21.18 73.09,15.35 72.95,15.26 C72.79,15.16 57.21,15.26 56.97,15.4 Z" fill="#E1E1E1"/>
  <path d="M54.56,19.62 L58.8,19.62 L58.8,23.99 L54.56,23.99 L54.56,19.62 Z" fill="#4A4542"/>
  <path d="M58.78,23.94 L63.02,23.94 L63.02,28.31 L58.78,28.31 L58.78,23.94 Z" fill="#4A4542"/>
  <path d="M62.86,19.58 L67.1,19.58 L67.1,23.95 L62.86,23.95 L62.86,19.58 Z" fill="#4A4542"/>
  <path d="M67.08,23.94 L71.32,23.94 L71.32,28.31 L67.08,28.31 L67.08,23.94 Z" fill="#4A4542"/>
  <path d="M71.26,19.72 L75.5,19.72 L75.5,24.09 L71.26,24.09 L71.26,19.72 Z" fill="#4A4542"/>
</svg>
